assets/unlock.svg

<?xml version="1.0" encoding="utf-8"?>
<!-- Generator: Adobe Illustrator 21.1.0, SVG Export Plug-In . SVG Version: 6.00 Build 0)  -->
<svg version="1.1" id="Layer_1" xmlns="http://www.w3.org/2000/svg" xmlns:xlink="http://www.w3.org/1999/xlink" x="0px" y="0px"
	 viewBox="0 0 16 21" style="enable-background:new 0 0 16 21;" xml:space="preserve">
<style type="text/css">
	.st0{fill:#001833;}
</style>
<path id="path-1_1_" class="st0" d="M14,7c1.1,0,2,0.9,2,2v10c0,1.1-0.9,2-2,2H2c-1.1,0-2-0.9-2-2V9c0-1.1,0.9-2,2-2h9.1V5
	c0-1.7-1.4-3.1-3.1-3.1S4.9,3.3,4.9,5H3c0-2.8,2.2-5,5-5s5,2.2,5,5v2H14z M8,16c1.1,0,2-0.9,2-2s-0.9-2-2-2s-2,0.9-2,2S6.9,16,8,16z
	"/>
</svg>

<?xml version="1.0" encoding="UTF-8"?>
<svg width="16px" height="21px" viewBox="0 0 16 21" version="1.1" xmlns="http://www.w3.org/2000/svg" xmlns:xlink="http://www.w3.org/1999/xlink">
    <!-- Generator: Sketch 47.1 (45422) - http://www.bohemiancoding.com/sketch -->
    <title>Mask</title>
    <desc>Created with Sketch.</desc>
    <defs>
        <path d="M14,7 C15.1,7 16,7.9 16,9 L16,19 C16,20.1 15.1,21 14,21 L2,21 C0.9,21 0,20.1 0,19 L0,9 C0,7.9 0.9,7 2,7 L11.1,7 L11.1,5 C11.1,3.29 9.71,1.9 8,1.9 C6.29,1.9 4.9,3.29 4.9,5 L3,5 C3,2.24 5.24,0 8,0 C10.76,0 13,2.24 13,5 L13,7 L14,7 Z M8,16 C9.1,16 10,15.1 10,14 C10,12.9 9.1,12 8,12 C6.9,12 6,12.9 6,14 C6,15.1 6.9,16 8,16 Z" id="path-1"></path>
    </defs>
    <g id="Icons" stroke="none" stroke-width="1" fill="none" fill-rule="evenodd">
        <g id="extra-/-unlock" transform="translate(-4.000000, -1.000000)">
            <g id="unlock">
                <g id="Icon-🎨" transform="translate(4.000000, 1.000000)">
                    <mask id="mask-2" fill="white">
                        <use xlink:href="#path-1"></use>
                    </mask>
                    <use id="Mask" fill="#001833" fill-rule="nonzero" xlink:href="#path-1"></use>
                </g>
            </g>
        </g>
    </g>
</svg>
